X:172
U: ~ = !turn!
%%topmargin 3cm
T:The Red Bull
B:Traditional Irish Fiddle Tunes. Randy Miller and Jack Perron.
Z:Transcribed by Ralph Palmer
R:Reel
L:1/8
M:C|
K:G
DEGB AGED | ~c3 A BGEG | DEGB AGED | ((3cBA) BG AGEG |
DEGB AGED | c3 e dBAB | ((3cBA) BG Agfg | [1 ecAF G4 :| [2 ecAF G3 c ||
|: Bd (3.d.d.d Bdgf | edeg aged "(A"| Bd (3.d.d.d defB "A)"| ((3cBA) BG AGEG |
Bd (3.d.d.d Bdgf | edeg a2 ga | [1 ((3bag) ag edge | dBAB AGAc :|
[2 ((3bag) ag {/a}gedg | ecAF G3 E |] xxxx  [|]  xxxx "(A"|| Bd (3.d.d.d Bd{/e}dB "A)"||
